!!!SOCIAL_FUNCTION:	war songs
!!!PDT:	1929
!!!OTL: No_138_Sing_Louder.krn
!!!REG: Southwest
!!!LANG: Non-Tone
!!!LING_GROUP: Uto-Aztecan
**kern
*staff1
=1-
*clefF4
*k[b-e-a-]
*M2/4
2e-\
=2
4.e-\
8c\
=3
4.e-\
8B-\
=4
16c\LK
[8.B-\J
8B-\]
16r
16e-\
=5
2e-\
=6
2e-\
=7
16c\LK
[8.B-\J
4B-\]
=8
2B-\
=9
16G\LK
8.F\J
4F\
=10
4A-\
16F\LK
8.E-\J
=11
4E-\
4BB-/
=12
2E-\
=13
[2BB-/
=14
2BB-/]
=15
4B-\
4B-\
=16
4c\
8c\L
8B-\J
=17
4.B-\
8F\
=18
8G\L
8F\J
8F\
8r
=19
2A-\
=20
4A-\
4A-\
=21
16A-\LK
[8.F\J
4F\]
=22
4E-\
8C/
8r
=23
2F\
=24
16F\LK
[8.E-\J
4E-\]
=25
4E-\
4C/
=26
2BB-/
=27
2BB-/
==
*-
